packages/icons/src/svg/roles.svg

<svg xmlns="http://www.w3.org/2000/svg" viewBox="0 0 16 16">
  <path d="M16,2V9.36841C16,13.536,10.06421,16,10,16a13.25712,13.25712,0,0,1-2.36426-1.28424C9.17664,13.96014,13,11.71545,13,8.36841V2.52051C14.68463,2.303,16,2,16,2ZM12,0V7.36841C12,11.536,6.06421,14,6,14S0,11.536,0,7.36841V0A31.3482,31.3482,0,0,0,6,.73682,31.3482,31.3482,0,0,0,12,0ZM3,5H5V4H3ZM9,8A4.38,4.38,0,0,1,6,9,4.38,4.38,0,0,1,3,8V9a4.38,4.38,0,0,0,3,1A4.38,4.38,0,0,0,9,9ZM9,4H7V5H9Z"/>
</svg>

<svg xmlns="http://www.w3.org/2000/svg" viewBox="0 0 16 16">
	<path d="M16 2v7.368C16 13.536 10.064 16 10 16a13.257 13.257 0 0 1-2.364-1.284c1.54-.756 5.364-3 5.364-6.348V2.521C14.685 2.303 16 2 16 2zm-4-2v7.368C12 11.536 6.064 14 6 14s-6-2.464-6-6.632V0a31.348 31.348 0 0 0 6 .737A31.348 31.348 0 0 0 12 0zM3 5h2V4H3zm6 3a4.38 4.38 0 0 1-3 1 4.38 4.38 0 0 1-3-1v1a4.38 4.38 0 0 0 3 1 4.38 4.38 0 0 0 3-1zm0-4H7v1h2z"/>
</svg>
